X:210
T:Mondanet Maganak
M:4/4
O:Turkey
Z:Richard Robinson 
%%TUNEURL: http://www.leeds.ac.uk/music/Info/RRTuneBk/gettune/0000068c.html
%%ID:0000068c
K:D min
A =B^c |\
d^c de fe d=c | ee2^d e2f^f | \
g^f ga ba g=f | aa2^g a4:|
ba ga ba g2 | fe de fe d2 |\
^c2 b2 ac3 | dd ^c2 d4 ||
